X: 54
T: REELS: Devanny's Goat Set
T: Devanny's Goat
C: C: Tommy Whelan (?) / Trad.; S: Noel Hill / Noel Hill / Bothy Band
C: Set Leaders: Tania, Anton, Sophie
Z: Anton Zille ed., Oleg Naumov arr.; Moulouf / Kenny / Josh Kane at The Session
N: https://thesession.org/members/26966/sets/92390
R: Reel
M: 4/4
L: 1/8
Q: 1/2=100
K: Dmaj
|:"D"DFAB AFAB|"D/F#"d2 fe "G"dBAF|"D/F#"DFAF "D/B"BFAF|"Em"EGFD "A"E3F|
"D"AFAB AFAB|"D/F#"defe "G"dBAf|"D/F#"efdB "D/B"AF~F2|"Em"AFEG "A"FD D2:||
|:"D"faab afdf|"D/F#"a/b/a fd "G"edBd|"D"ABde "D/F#"fd~d2|"Em"edfd "A"edBd|
"D"ABde "(D/B)"fd~d2|"G"e/f/g fd "(A)"edBd|"D"ABdB AF~F2|"A"AFEG "(D)"FD D2:||
T: New Mown Meadows (Amix)
K: Amix
|:"A5"eA~A2 BABd|"A5"egfd "G"edBd|"A5"eA~A2 BABd|"G"dfed Bcdf|
"A5"eAAG A2 Bd|"A5"e/f/g fd edBd|"G"~g3e "D/F#"~f3e|"G"dfed "Em (A)"Bcdf:||
|:"D"a2 fa bafa|"D"a/b/a fd "G"edBd|"D"~a2 fa baaf|"G"dfed "A"Bcdf|
"D"a2 fa bafa|"D"a/b/a fd "G"edBd|"G"~g3e "D/F#"~f3e|"Em"dfed "D (A)"Bcdf:||
T: Rip the Calico
K: Dmaj
|:"D"d2 dc defd|"G"ed B/c/d "A"egfe|"D"~d3c defd|"G"efdB "A"~A3B:||
|:"G"dB~B2 gefd|"A"ed B/c/d egfe|"G"dB~B2 gefd|1 "A"efdB ~A3B:|2 "A"efdB ~A3e||
"D"faaf gefd|"G"ed B/c/d "A"egfe|"D"fa~a2 gefd|"G"efdB "A"~A3e|
"D"~a3f gefd|"G"ed B/c/d "A"egfe|"D"fa~a2 bfaf|"G"e2 ef "A"g/f/e fe||

